app/img/icons/pencil.svg

<svg width="14" height="14" viewBox="0 0 14 14" fill="none" xmlns="http://www.w3.org/2000/svg">
<path d="M8.06999 2.75006L10.898 5.58339M8.06999 2.75006L9.69114 1.12585C9.82372 0.993055 10.0035 0.918457 10.191 0.918457C10.3785 0.918457 10.5583 0.993055 10.6908 1.12585L12.5191 2.9576C12.6517 3.09043 12.7261 3.27056 12.7261 3.45839C12.7261 3.64621 12.6517 3.82635 12.5191 3.95918L10.898 5.58339L8.06999 2.75006ZM8.06999 2.75006L1.20715 9.62585C1.07455 9.75865 1.00004 9.93879 1 10.1266V11.9584C1 12.1463 1.07449 12.3264 1.20708 12.4593C1.33966 12.5921 1.51949 12.6667 1.707 12.6667H3.5353C3.72279 12.6667 3.90259 12.592 4.03515 12.4592L10.898 5.58339L8.06999 2.75006Z" stroke="black" stroke-linecap="round" stroke-linejoin="round"/>
</svg>

<svg width="14" height="14" fill="none" xmlns="http://www.w3.org/2000/svg"><path d="M8.07 2.75l2.828 2.833M8.07 2.75l1.621-1.624a.706.706 0 011 0l1.828 1.832a.709.709 0 010 1.001l-1.621 1.624L8.07 2.75zm0 0L1.207 9.626a.709.709 0 00-.207.5v1.832a.71.71 0 00.707.709h1.828a.706.706 0 00.5-.208l6.863-6.876L8.07 2.75z" stroke="#000" stroke-linecap="round" stroke-linejoin="round"/></svg>
